dist/img/svg/services/ventilation/heat-exchanger.svg

<svg width="20" height="14" viewBox="0 0 20 14" fill="none" xmlns="http://www.w3.org/2000/svg">
<g clip-path="url(#clip0_86_1838)">
<path fill-rule="evenodd" clip-rule="evenodd" d="M14.3484 13.402C14.3315 13.402 14.3178 13.388 14.3178 13.3708V12.6792V12.3801C14.3178 12.2174 14.1905 12.0851 14.032 12.0812C14.0296 12.0812 14.0272 12.0812 14.0249 12.0812C14.0225 12.0812 14.0201 12.0812 14.0177 12.0812C13.8592 12.0851 13.7319 12.2174 13.7319 12.3801V12.6792V13.3708C13.7319 13.7184 14.008 14 14.3484 14H16.937C17.2775 14 17.5535 13.7183 17.5535 13.3708V12.6792V12.3801C17.5535 12.2174 17.4262 12.0851 17.2677 12.0812C17.2653 12.0812 17.2629 12.0812 17.2606 12.0812C17.2582 12.0812 17.2558 12.0812 17.2535 12.0812C17.0949 12.0851 16.9676 12.2174 16.9676 12.3801V12.6792V13.3708C16.9676 13.388 16.9539 13.402 16.937 13.402H14.3484Z" fill="#78C081"/>
<path fill-rule="evenodd" clip-rule="evenodd" d="M5.80547 5.98919C5.91988 6.10596 6.10538 6.10596 6.21979 5.98919L8.13674 4.03283C8.16404 4.00497 8.18851 3.97548 8.21017 3.9447C8.42039 3.64594 8.36666 3.22534 8.08103 2.98908C8.0794 2.98774 8.07777 2.9864 8.07613 2.98506C7.47485 2.49649 6.73896 2.17239 5.93432 2.08059C5.93099 2.08021 5.92767 2.07986 5.92435 2.07953C5.55958 2.04349 5.23608 2.30421 5.17833 2.66303C5.17232 2.70037 5.16919 2.73877 5.16919 2.77802V5.545C5.16919 5.71013 5.30036 5.84399 5.46216 5.84399C5.62396 5.84399 5.75513 5.71013 5.75513 5.545V2.77802C5.75513 2.71694 5.8074 2.6679 5.86934 2.67488C6.56087 2.7538 7.19342 3.03217 7.71116 3.45287C7.76242 3.4945 7.76403 3.56753 7.72242 3.61L5.80547 5.56636C5.69106 5.68312 5.69106 5.87243 5.80547 5.98919Z" fill="#78C081"/>
<path fill-rule="evenodd" clip-rule="evenodd" d="M1.28896 5.85792C1.28619 5.88335 1.28479 5.90859 1.28468 5.93358C1.28319 6.2784 1.52896 6.57387 1.85983 6.62924C1.89638 6.63535 1.93396 6.63854 1.97237 6.63854H4.68362C4.84542 6.63854 4.97659 6.50468 4.97659 6.33955C4.97659 6.17442 4.84542 6.04056 4.68362 6.04056H1.97237C1.91259 6.04056 1.86448 5.98723 1.87131 5.92396C1.94865 5.21823 2.22145 4.57265 2.63363 4.04432C2.67447 3.99195 2.74603 3.99037 2.78763 4.03282L4.70454 5.98918C4.81895 6.10594 5.00445 6.10595 5.11886 5.98918C5.23327 5.87242 5.23328 5.68311 5.11887 5.56635L3.20195 3.60999C3.16736 3.57468 3.1302 3.54403 3.09115 3.51795C2.86039 3.36384 2.56349 3.36956 2.33821 3.52005C2.27785 3.56037 2.22264 3.61108 2.17521 3.67189C1.69651 4.28549 1.37891 5.03672 1.28896 5.85792Z" fill="#78C081"/>
<path fill-rule="evenodd" clip-rule="evenodd" d="M4.99027 10.5985C5.35899 10.6403 5.6877 10.3782 5.74598 10.0162C5.75199 9.97878 5.75513 9.94035 5.75513 9.90108V7.1341C5.75513 6.96897 5.62396 6.8351 5.46216 6.8351C5.30036 6.8351 5.16919 6.96897 5.16919 7.1341V9.90108C5.16919 9.96211 5.11691 10.0112 5.05498 10.0042C4.36347 9.92529 3.73089 9.64688 3.21315 9.22622C3.16188 9.18457 3.16031 9.11155 3.20194 9.06906L5.11885 7.11274C5.23326 6.99598 5.23326 6.80667 5.11885 6.6899C5.00444 6.57314 4.81894 6.57314 4.70453 6.6899L2.78762 8.64622C2.76032 8.67408 2.73586 8.70356 2.7142 8.73434C2.50278 9.03479 2.55827 9.45851 2.8482 9.69404M4.99027 10.5985C4.18561 10.5067 3.44948 10.1826 2.8482 9.69404L4.99027 10.5985Z" fill="#78C081"/>
<path fill-rule="evenodd" clip-rule="evenodd" d="M7.72241 9.06907C7.74972 9.09695 7.77863 9.12192 7.8088 9.14403C8.10318 9.35974 8.51831 9.30314 8.74907 9.00725C9.22781 8.39361 9.54538 7.64255 9.63533 6.82137C9.67632 6.44505 9.4195 6.10948 9.06482 6.04992C9.02817 6.04376 8.99047 6.04056 8.95195 6.04056H6.2407C6.0789 6.04056 5.94773 6.17442 5.94773 6.33955C5.94773 6.50468 6.0789 6.63854 6.2407 6.63854H8.95195C9.01184 6.63854 9.05988 6.69195 9.053 6.75512C8.97566 7.46085 8.7029 8.10642 8.29069 8.63478C8.24993 8.68705 8.17837 8.68874 8.13673 8.64623L6.21977 6.68991C6.10536 6.57315 5.91986 6.57315 5.80545 6.68992C5.69104 6.80668 5.69104 6.99599 5.80546 7.11275L7.72241 9.06907Z" fill="#78C081"/>
<path fill-rule="evenodd" clip-rule="evenodd" d="M4.39054 6.33955C4.39054 6.94355 4.87033 7.43322 5.46214 7.43322C6.05401 7.43322 6.53382 6.94357 6.53382 6.33955C6.53382 5.7355 6.05402 5.24584 5.46214 5.24584C4.87032 5.24584 4.39054 5.73552 4.39054 6.33955ZM5.46216 6.8351C5.19397 6.8351 4.97659 6.61331 4.97659 6.33955C4.97659 6.06574 5.19398 5.84399 5.46216 5.84399C5.73044 5.84399 5.94773 6.06576 5.94773 6.33955C5.94773 6.61329 5.73045 6.8351 5.46216 6.8351Z" fill="#78C081"/>
<path fill-rule="evenodd" clip-rule="evenodd" d="M14.8706 5.98919C14.985 6.10596 15.1705 6.10596 15.285 5.98919L17.2019 4.03283C17.4957 3.73304 17.4609 3.24468 17.1413 2.98506C16.54 2.49649 15.8041 2.17239 14.9994 2.08059C14.5926 2.03443 14.2344 2.35828 14.2344 2.77802V5.545C14.2344 5.71013 14.3655 5.84399 14.5273 5.84399C14.6891 5.84399 14.8203 5.71013 14.8203 5.545V2.77802C14.8203 2.7169 14.8726 2.66787 14.9345 2.67489C15.6261 2.75382 16.2586 3.03218 16.7763 3.45287C16.8276 3.4945 16.8292 3.56753 16.7876 3.61L14.8706 5.56636C14.7562 5.68312 14.7562 5.87243 14.8706 5.98919Z" fill="#78C081"/>
<path fill-rule="evenodd" clip-rule="evenodd" d="M10.3541 5.85792C10.309 6.27308 10.6262 6.63854 11.0375 6.63854H13.7488C13.9106 6.63854 14.0418 6.50468 14.0418 6.33955C14.0418 6.17442 13.9106 6.04056 13.7488 6.04056H11.0375C10.9778 6.04056 10.9296 5.98723 10.9365 5.92396C11.0138 5.21823 11.2866 4.57265 11.6988 4.04432C11.7396 3.99195 11.8112 3.99037 11.8528 4.03282L13.7697 5.98918C13.8841 6.10594 14.0696 6.10595 14.184 5.98918C14.2984 5.87242 14.2984 5.68311 14.184 5.56635L12.2671 3.60999C11.9733 3.31015 11.4948 3.34569 11.2404 3.67189C10.7617 4.28549 10.4441 5.03672 10.3541 5.85792Z" fill="#78C081"/>
<path fill-rule="evenodd" clip-rule="evenodd" d="M14.0554 10.5985C14.4622 10.6446 14.8203 10.3208 14.8203 9.90108V7.1341C14.8203 6.96897 14.6891 6.8351 14.5273 6.8351C14.3655 6.8351 14.2344 6.96897 14.2344 7.1341V9.90108C14.2344 9.96211 14.1821 10.0112 14.1201 10.0042C13.4286 9.92529 12.7961 9.64688 12.2783 9.22622C12.227 9.18457 12.2255 9.11155 12.2671 9.06906L14.184 7.11274C14.2984 6.99598 14.2984 6.80667 14.184 6.6899C14.0696 6.57314 13.8841 6.57314 13.7697 6.6899L11.8528 8.64622C11.559 8.94601 11.5937 9.43438 11.9134 9.69404M14.0554 10.5985C13.2508 10.5067 12.5147 10.1826 11.9134 9.69404L14.0554 10.5985Z" fill="#78C081"/>
<path fill-rule="evenodd" clip-rule="evenodd" d="M16.7876 9.06907C17.0813 9.36883 17.5598 9.33348 17.8142 9.00725C18.293 8.39361 18.6106 7.64255 18.7005 6.82137C18.7457 6.40616 18.4284 6.04056 18.0171 6.04056H15.3059C15.1441 6.04056 15.0129 6.17442 15.0129 6.33955C15.0129 6.50468 15.1441 6.63854 15.3059 6.63854H18.0171C18.077 6.63854 18.1251 6.69195 18.1182 6.75512C18.0408 7.46085 17.7681 8.10642 17.3559 8.63478C17.3151 8.68705 17.2435 8.68874 17.2019 8.64623L15.2849 6.68991C15.1705 6.57315 14.985 6.57315 14.8706 6.68992C14.7562 6.80668 14.7562 6.99599 14.8706 7.11275L16.7876 9.06907Z" fill="#78C081"/>
<path fill-rule="evenodd" clip-rule="evenodd" d="M10.3279 6.33955C10.3279 8.70649 12.2081 10.6253 14.5273 10.6253C16.8467 10.6253 18.7268 8.70648 18.7268 6.33955C18.7268 3.97257 16.8467 2.05373 14.5273 2.05373C12.2081 2.05373 10.3279 3.97257 10.3279 6.33955ZM14.5273 10.0273C12.5317 10.0273 10.9138 8.37623 10.9138 6.33955C10.9138 4.30282 12.5317 2.65171 14.5273 2.65171C16.5231 2.65171 18.1408 4.30282 18.1408 6.33955C18.1408 8.37624 16.5231 10.0273 14.5273 10.0273Z" fill="#78C081"/>
<path fill-rule="evenodd" clip-rule="evenodd" d="M13.4557 6.33955C13.4557 6.94355 13.9355 7.43322 14.5273 7.43322C15.1192 7.43322 15.599 6.94355 15.599 6.33955C15.599 5.73552 15.1192 5.24584 14.5273 5.24584C13.9355 5.24584 13.4557 5.73552 13.4557 6.33955ZM14.5273 6.8351C14.2591 6.8351 14.0418 6.61331 14.0418 6.33955C14.0418 6.06574 14.2592 5.84399 14.5273 5.84399C14.7956 5.84399 15.0129 6.06574 15.0129 6.33955C15.0129 6.61331 14.7956 6.8351 14.5273 6.8351Z" fill="#78C081"/>
<path fill-rule="evenodd" clip-rule="evenodd" d="M2.44649 13.3708C2.44649 13.7183 2.72256 14 3.06301 14H5.65157C5.99203 14 6.26813 13.7184 6.26813 13.3708V12.6792V12.3801C6.26813 12.2174 6.14079 12.0851 5.98227 12.0812C5.97991 12.0812 5.97754 12.0812 5.97516 12.0812C5.97278 12.0812 5.97042 12.0812 5.96805 12.0812C5.80953 12.0851 5.68219 12.2174 5.68219 12.3801V12.6792V13.3708C5.68219 13.388 5.66852 13.402 5.65157 13.402H3.06301C3.04612 13.402 3.03243 13.388 3.03243 13.3708V12.6792V12.3801C3.03243 12.2174 2.90508 12.0851 2.74657 12.0812C2.7442 12.0812 2.74183 12.0812 2.73946 12.0812C2.73708 12.0812 2.73471 12.0812 2.73235 12.0812C2.57383 12.0851 2.44649 12.2174 2.44649 12.3801V12.6792V13.3708Z" fill="#78C081"/>
<path fill-rule="evenodd" clip-rule="evenodd" d="M8.75474 10.3263C8.75474 10.4915 8.88591 10.6253 9.04771 10.6253H10.9418C11.1036 10.6253 11.2347 10.4915 11.2347 10.3263C11.2347 10.1612 11.1036 10.0273 10.9418 10.0273H9.04771C8.88591 10.0273 8.75474 10.1612 8.75474 10.3263Z" fill="#78C081"/>
<path d="M13.7319 12.3801C13.7319 12.2174 13.8592 12.0851 14.0177 12.0812H8.30965H5.98227C6.14079 12.0851 6.26813 12.2174 6.26813 12.3801V12.6792H8.30965H13.7319V12.3801Z" fill="#78C081"/>
<path d="M5.68219 12.3801C5.68219 12.2174 5.80953 12.0851 5.96805 12.0812H2.74657C2.90508 12.0851 3.03243 12.2174 3.03243 12.3801V12.6792H5.68219V12.3801Z" fill="#78C081"/>
<path d="M14.3178 12.3801V12.6792H16.9676V12.3801C16.9676 12.2174 17.0949 12.0851 17.2535 12.0812H14.032C14.1905 12.0851 14.3178 12.2174 14.3178 12.3801Z" fill="#78C081"/>
<path d="M1.08203 12.0812C0.808381 12.0812 0.585938 11.8544 0.585938 11.5745V1.10427C0.585938 0.8246 0.808193 0.597982 1.08203 0.597982H14.4323H18.918C19.1918 0.597982 19.4141 0.8246 19.4141 1.10427V11.5745C19.4141 11.8544 19.1916 12.0812 18.918 12.0812H17.2677C17.4262 12.0851 17.5535 12.2174 17.5535 12.3801V12.6792H18.918C19.5154 12.6792 20 12.1845 20 11.5745V1.10427C20 0.494151 19.5152 0 18.918 0H14.4323H1.08203C0.484777 0 0 0.494151 0 1.10427V11.5745C0 12.1845 0.484589 12.6792 1.08203 12.6792H2.44649V12.3801C2.44649 12.2174 2.57383 12.0851 2.73235 12.0812H1.08203Z" fill="#78C081"/>
<path d="M5.17833 2.66303C5.23608 2.30421 5.55958 2.04349 5.92435 2.07953C5.77256 2.06257 5.61834 2.05386 5.46212 2.05386C5.1229 2.05386 4.79198 2.09495 4.47532 2.17306C3.54757 2.44793 2.84559 2.93684 2.33821 3.52005C2.56349 3.36956 2.86039 3.36384 3.09115 3.51795C3.48947 3.1621 3.99254 2.88633 4.61298 2.7543C4.796 2.70916 4.98496 2.67834 5.17833 2.66303Z" fill="#78C081"/>
<path d="M8.08103 2.98908C8.36666 3.22534 8.42039 3.64594 8.21017 3.9447C8.69235 4.52032 9.00389 5.24925 9.06482 6.04992C9.4195 6.10948 9.67632 6.44505 9.63533 6.82137C9.54538 7.64255 9.22781 8.39361 8.74907 9.00725C8.51831 9.30314 8.10318 9.35974 7.8088 9.14403C7.24474 9.63606 6.53048 9.95394 5.74598 10.0162C5.6877 10.3782 5.35899 10.6403 4.99027 10.5985C4.18561 10.5067 3.44948 10.1826 2.8482 9.69404C2.55827 9.45851 2.50278 9.03479 2.7142 8.73434C2.23222 8.15876 1.9208 7.4299 1.85983 6.62924C1.52896 6.57387 1.28319 6.2784 1.28468 5.93358C1.27005 6.072 1.2629 6.2077 1.2629 6.3394C1.2629 8.70668 3.14288 10.6253 5.46212 10.6253C7.78129 10.6253 9.66173 8.70673 9.66173 6.3394C9.66173 4.98328 9.04444 3.77433 8.08103 2.98908Z" fill="#78C081"/>
</g>
<defs>
<clipPath id="clip0_86_1838">
<rect width="20" height="14" fill="white"/>
</clipPath>
</defs>
</svg>

<svg width="20" height="14" fill="none" xmlns="http://www.w3.org/2000/svg"><g clip-path="url(#clip0_86_1838)" fill="#78C081"><path fill-rule="evenodd" clip-rule="evenodd" d="M14.348 13.402a.03.03 0 01-.03-.031v-.991a.296.296 0 00-.286-.299h-.014a.296.296 0 00-.286.3v.99c0 .347.276.629.616.629h2.589c.34 0 .616-.282.616-.63v-.99a.296.296 0 00-.285-.299h-.015a.296.296 0 00-.285.3v.99a.03.03 0 01-.031.031h-2.589zM5.805 5.99a.29.29 0 00.415 0l1.917-1.957a.708.708 0 00-.056-1.044l-.005-.004a4.135 4.135 0 00-2.152-.905.692.692 0 00-.755.698v2.767c0 .165.131.299.293.299a.296.296 0 00.293-.299V2.778c0-.061.052-.11.114-.103a3.555 3.555 0 011.842.778.107.107 0 01.011.157L5.805 5.566a.303.303 0 000 .423z"/><path fill-rule="evenodd" clip-rule="evenodd" d="M1.289 5.858a.699.699 0 00.683.78h2.712a.296.296 0 00.293-.298.296.296 0 00-.293-.3H1.972a.104.104 0 01-.1-.116c.077-.706.35-1.351.762-1.88a.102.102 0 01.154-.011l1.917 1.956c.114.117.3.117.414 0a.303.303 0 000-.423L3.202 3.61a.677.677 0 00-1.027.062 4.313 4.313 0 00-.886 2.186z"/><path fill-rule="evenodd" clip-rule="evenodd" d="M4.99 10.598a.691.691 0 00.765-.697V7.134a.296.296 0 00-.293-.299.296.296 0 00-.293.3V9.9c0 .061-.052.11-.114.103a3.556 3.556 0 01-1.842-.778.107.107 0 01-.011-.157l1.917-1.956a.303.303 0 000-.423.289.289 0 00-.414 0L2.788 8.646a.708.708 0 00.06 1.048m2.142.904a4.136 4.136 0 01-2.142-.904l2.142.904z"/><path fill-rule="evenodd" clip-rule="evenodd" d="M7.722 9.07a.68.68 0 001.027-.062 4.313 4.313 0 00.886-2.187.7.7 0 00-.683-.78H6.24a.296.296 0 00-.293.299c0 .165.13.299.293.299h2.711c.06 0 .108.053.101.116a3.708 3.708 0 01-.762 1.88.102.102 0 01-.154.011L6.22 6.69a.289.289 0 00-.415 0 .303.303 0 000 .423l1.917 1.956z"/><path fill-rule="evenodd" clip-rule="evenodd" d="M4.39 6.34c0 .604.48 1.093 1.072 1.093.592 0 1.072-.49 1.072-1.093 0-.604-.48-1.094-1.072-1.094-.592 0-1.071.49-1.071 1.094zm1.072.495a.49.49 0 01-.485-.495.49.49 0 01.485-.496.49.49 0 01.486.496.49.49 0 01-.486.495zm9.408-.845a.29.29 0 00.415 0l1.917-1.957a.713.713 0 00-.06-1.048 4.135 4.135 0 00-2.143-.904.694.694 0 00-.765.697v2.767c0 .165.132.299.293.299a.296.296 0 00.293-.299V2.778c0-.061.053-.11.114-.103a3.555 3.555 0 011.842.778.107.107 0 01.012.157L14.87 5.566a.303.303 0 000 .423z"/><path fill-rule="evenodd" clip-rule="evenodd" d="M10.354 5.858a.697.697 0 00.684.78h2.71a.296.296 0 00.294-.298.296.296 0 00-.293-.3h-2.712a.104.104 0 01-.1-.116c.077-.706.35-1.351.762-1.88a.102.102 0 01.154-.011l1.917 1.956c.114.117.3.117.414 0a.303.303 0 000-.423L12.267 3.61a.68.68 0 00-1.027.062 4.314 4.314 0 00-.886 2.186z"/><path fill-rule="evenodd" clip-rule="evenodd" d="M14.055 10.598a.694.694 0 00.765-.697V7.134a.296.296 0 00-.293-.299.296.296 0 00-.293.3V9.9c0 .061-.052.11-.114.103a3.556 3.556 0 01-1.842-.778.107.107 0 01-.01-.157l1.916-1.956a.303.303 0 000-.423.289.289 0 00-.414 0l-1.917 1.956c-.294.3-.26.788.06 1.048m2.142.904a4.136 4.136 0 01-2.142-.904l2.142.904z"/><path fill-rule="evenodd" clip-rule="evenodd" d="M16.788 9.07a.68.68 0 001.026-.063 4.312 4.312 0 00.887-2.186.697.697 0 00-.684-.78h-2.711a.296.296 0 00-.293.299c0 .165.131.299.293.299h2.711c.06 0 .108.053.101.116a3.708 3.708 0 01-.762 1.88.102.102 0 01-.154.011L15.285 6.69a.289.289 0 00-.414 0 .303.303 0 000 .423l1.917 1.956z"/><path fill-rule="evenodd" clip-rule="evenodd" d="M10.328 6.34c0 2.366 1.88 4.285 4.2 4.285 2.319 0 4.199-1.919 4.199-4.285 0-2.367-1.88-4.286-4.2-4.286-2.319 0-4.2 1.919-4.2 4.286zm4.2 3.687c-1.996 0-3.614-1.65-3.614-3.687s1.618-3.688 3.613-3.688c1.996 0 3.614 1.65 3.614 3.688 0 2.036-1.618 3.687-3.614 3.687z"/><path fill-rule="evenodd" clip-rule="evenodd" d="M13.456 6.34c0 .604.48 1.093 1.071 1.093.592 0 1.072-.49 1.072-1.093 0-.604-.48-1.094-1.072-1.094-.591 0-1.071.49-1.071 1.094zm1.071.495a.49.49 0 01-.485-.495.49.49 0 01.485-.496.49.49 0 01.486.496.49.49 0 01-.486.495zM2.446 13.37c0 .348.277.63.617.63h2.589c.34 0 .616-.282.616-.63v-.99a.296.296 0 00-.286-.299h-.014a.296.296 0 00-.286.3v.99a.03.03 0 01-.03.031H3.063a.03.03 0 01-.03-.031v-.991a.296.296 0 00-.286-.299h-.015a.296.296 0 00-.286.3v.99zm6.309-3.044c0 .165.13.3.293.3h1.894a.296.296 0 00.293-.3.296.296 0 00-.293-.299H9.048a.296.296 0 00-.293.3z"/><path d="M13.732 12.38c0-.163.127-.295.286-.299H5.982a.296.296 0 01.286.3v.298h7.464v-.299zm-8.05 0c0-.163.128-.295.286-.299H2.747a.296.296 0 01.285.3v.298h2.65v-.299zm8.636 0v.3h2.65v-.3c0-.163.127-.295.285-.299h-3.221a.296.296 0 01.286.3z"/><path d="M1.082 12.081a.502.502 0 01-.496-.506V1.104c0-.28.222-.507.496-.507h17.836c.274 0 .496.227.496.506v10.47c0 .28-.222.507-.496.507h-1.65a.296.296 0 01.285.3v.298h1.365c.597 0 1.082-.495 1.082-1.104V1.104C20 .494 19.515 0 18.918 0H1.082C.485 0 0 .494 0 1.104v10.47c0 .61.485 1.105 1.082 1.105h1.364v-.299c0-.163.128-.295.286-.299h-1.65z"/><path d="M5.178 2.663a.692.692 0 01.746-.583 4.161 4.161 0 00-1.449.093c-.927.275-1.63.764-2.137 1.347a.677.677 0 01.753-.002 3.275 3.275 0 011.522-.764 3.52 3.52 0 01.565-.091zm2.903.327c.286.235.34.656.13.955.481.575.793 1.304.854 2.105a.7.7 0 01.57.771 4.313 4.313 0 01-.886 2.186.68.68 0 01-.94.137 3.56 3.56 0 01-2.063.872.691.691 0 01-.756.582 4.136 4.136 0 01-2.142-.904.714.714 0 01-.134-.96A3.712 3.712 0 011.86 6.63a.699.699 0 01-.575-.695 3.866 3.866 0 00-.022.405c0 2.368 1.88 4.286 4.2 4.286 2.318 0 4.199-1.918 4.199-4.286A4.31 4.31 0 008.08 2.99z"/></g><defs><clipPath id="clip0_86_1838"><path fill="#fff" d="M0 0h20v14H0z"/></clipPath></defs></svg>
